ui/src/main/resources/ui/images/save-as.svg

<?xml version="1.0" encoding="UTF-8" standalone="no"?>
<svg
        xmlns="http://www.w3.org/2000/svg"
        xmlns:xlink="http://www.w3.org/1999/xlink"
        xml:space="preserve"
        style="enable-background:new 0 0 512 512;"
        viewBox="0 0 512 512"
        y="0px"
        x="0px"
        id="Layer_1"
        version="1.1">
  <defs id="defs7">
  <clipPath
          id="clipPath9986"
          clipPathUnits="userSpaceOnUse"><use
       id="use9988"
       xlink:href="#g9982"
       y="0"
       x="0" /></clipPath>
      <clipPath
              id="clipPath10038"
              clipPathUnits="userSpaceOnUse"><use
       height="100%"
       width="100%"
       x="0"
       y="0"
       xlink:href="#g10029"
       id="use10040" /></clipPath>
      <clipPath
              id="clipPath10055"
              clipPathUnits="userSpaceOnUse"><use
       id="use10057"
       xlink:href="#g10051"
       y="0"
       x="0" /></clipPath></defs>
    <g
            mask="none"
            clip-path="none"
            style="fill:#0e3a5a;fill-opacity:1;stroke:none"
            transform="matrix(0.91499829,0,0,-0.91499829,20.795322,488.47813)"
            id="XMLID_2_">
	<g
            style="opacity:1;stroke:none"
            id="g910"><path
     transform="matrix(1.0928982,0,0,-1.0928982,-22.72717,533.85688)"
     d="M 49.800781 20.457031 C 41.291296 20.457031 34.428975 23.017355 29.396484 28.964844 C 23.448995 34.912333 20.886719 41.776607 20.886719 49.371094 L 20.886719 459.10742 C 20.886719 467.61691 23.448995 474.47924 29.396484 479.51172 C 35.343973 484.54421 42.206295 488.02148 49.800781 488.02148 L 160.94531 488.02148 L 216.78906 432.9082 L 216.78906 341.5293 C 216.78906 338.96731 217.61111 336.40481 219.34961 334.75781 C 221.08811 333.01931 223.6506 332.19727 226.12109 332.19727 L 284.86523 332.19727 C 287.42724 332.19727 289.98777 333.01931 291.63477 334.75781 C 293.28176 336.49631 294.19727 338.96731 294.19727 341.5293 L 294.19727 356.51172 L 333.24219 317.97656 C 332.53262 311.28447 329.93223 305.76793 324.94141 301.54492 C 318.99391 296.42094 312.13159 293.03516 304.53711 293.03516 L 128.125 293.03516 C 119.61551 293.03516 112.7532 295.59743 107.7207 301.54492 C 101.77322 307.49242 99.210938 314.35473 99.210938 321.94922 L 99.210938 448.85938 L 59.957031 448.85938 L 59.957031 58.703125 L 99.119141 58.703125 L 99.119141 185.70508 C 99.119141 194.21456 101.68141 201.07688 107.62891 206.10938 C 113.57639 212.05684 120.43871 214.61914 128.0332 214.61914 L 381.85547 214.61914 C 390.36495 214.61914 397.22727 212.05684 402.25977 206.10938 C 408.20725 200.16189 410.76758 193.29956 410.76758 185.70508 C 410.95057 185.70508 410.95117 58.794922 410.95117 58.794922 L 450.11328 58.794922 L 450.11328 202.63281 L 489.27539 163.98242 L 489.27539 49.371094 C 489.27539 40.861609 486.71311 33.997335 480.76562 28.964844 C 474.81816 23.017355 467.95581 20.457031 460.36133 20.457031 L 49.800781 20.457031 z M 138.37109 58.794922 L 372.61328 58.794922 L 372.61328 175.45703 L 138.37109 175.45703 L 138.37109 58.794922 z "
     style="color:#000000;font-style:normal;font-variant:normal;font-weight:normal;font-stretch:normal;font-size:medium;line-height:normal;font-family:sans-serif;font-variant-ligatures:normal;font-variant-position:normal;font-variant-caps:normal;font-variant-numeric:normal;font-variant-alternates:normal;font-variant-east-asian:normal;font-feature-settings:normal;font-variation-settings:normal;text-indent:0;text-align:start;text-decoration:none;text-decoration-line:none;text-decoration-style:solid;text-decoration-color:#000000;letter-spacing:normal;word-spacing:normal;text-transform:none;writing-mode:lr-tb;direction:ltr;text-orientation:mixed;dominant-baseline:auto;baseline-shift:baseline;text-anchor:start;white-space:normal;shape-padding:0;shape-margin:0;inline-size:0;clip-rule:nonzero;display:inline;overflow:visible;visibility:visible;isolation:auto;mix-blend-mode:normal;color-interpolation:sRGB;color-interpolation-filters:linearRGB;solid-color:#000000;solid-opacity:1;vector-effect:none;fill:#0e3a5a;fill-opacity:1;fill-rule:nonzero;stroke:none;stroke-width:0.914998;stroke-linecap:butt;stroke-linejoin:miter;stroke-miterlimit:4;stroke-dasharray:none;stroke-dashoffset:0;stroke-opacity:1;color-rendering:auto;image-rendering:auto;shape-rendering:auto;text-rendering:auto;enable-background:accumulate;stop-color:#000000;stop-opacity:1"
     clip-path="none"
     id="path912" /></g>
</g>
    <g
            transform="matrix(1.140505,0,0,1.2680045,-72.701783,-136.63294)"
            style="fill:#ff3a5a;fill-opacity:1;stroke:none;stroke-opacity:1"
            clip-path="url(#clipPath10038)"
            id="g10031"><g
     style="fill:#ff3a5a;fill-opacity:1;stroke:none;stroke-opacity:1"
     id="g10029"
     ><g
       id="g9946"
       clip-path="none"
       transform="translate(-0.50793651,2.031746)"
       style="fill:#ff3a5a;fill-opacity:1;stroke:none;stroke-opacity:1"><g
         id="g9944"
         style="fill:#ff3a5a;fill-opacity:1;stroke:none;stroke-opacity:1"><g
           style="fill:#ff3a5a;fill-opacity:1;stroke:none;stroke-opacity:1"
           id="g9984"
           clip-path="url(#clipPath9986)"><g
             style="fill:#ff3a5a;fill-opacity:1;stroke:none;stroke-opacity:1"
             id="g9982" /></g></g></g><g
            transform="translate(-0.50793651,2.031746)"
            style="fill:#ff3a5a;fill-opacity:1;stroke:none;stroke-opacity:1"
            id="use9950"
    ><g
         style="fill:#ff3a5a;fill-opacity:1;stroke:none;stroke-opacity:1"
         clip-path="url(#clipPath9986)"
         id="g10046"><g
           style="fill:#ff3a5a;fill-opacity:1;stroke:none;stroke-opacity:1"
           id="g10044"
           ><g
             style="fill:#ff3a5a;fill-opacity:1;stroke:none;stroke-opacity:1"
             clip-path="url(#clipPath10055)"
             id="g10053"><g
               style="fill:#ff3a5a;fill-opacity:1;stroke:none;stroke-opacity:1"
               id="g10051"
                /></g></g></g></g></g></g>
    <path
            d="m 257.07105,458.62803 v 53.14738 h 53.14737 L 466.96777,355.02604 413.8204,301.87868 Z M 508.06838,313.92542 c 5.52735,-5.52731 5.52735,-14.45608 0,-19.9834 l -33.16395,-33.16396 c -5.52732,-5.52734 -14.4561,-5.52734 -19.98341,0 l -25.93591,25.93591 53.14737,53.14736 z"
            id="path4-9"
            style="fill:#0e3a5a;fill-opacity:1;stroke-width:14.1726"/></svg>

<?xml version="1.0" encoding="utf-8"?>
<svg xmlns="http://www.w3.org/2000/svg" width="512" height="512">
    <path d="M49.8 20.457c-8.509 0-15.371 2.56-20.404 8.508-5.947 5.947-8.51 12.812-8.51 20.406v409.736c0 8.51 2.563 15.372 8.51 20.405 5.948 5.032 12.81 8.51 20.405 8.51h111.144l55.844-55.114V341.53c0-2.562.822-5.124 2.56-6.771 1.74-1.739 4.302-2.56 6.772-2.56h58.744c2.562 0 5.123.821 6.77 2.56 1.647 1.738 2.562 4.21 2.562 6.771v14.983l39.045-38.535c-.71-6.693-3.31-12.21-8.3-16.432-5.948-5.124-12.81-8.51-20.405-8.51H128.125c-8.51 0-15.372 2.562-20.404 8.51-5.948 5.947-8.51 12.81-8.51 20.404v126.91H59.957V58.703h39.162v127.002c0 8.51 2.562 15.372 8.51 20.404 5.947 5.948 12.81 8.51 20.404 8.51h253.822c8.51 0 15.372-2.562 20.405-8.51 5.947-5.947 8.508-12.81 8.508-20.404.183 0 .183-126.91.183-126.91h39.162v143.838l39.162-38.65V49.37c0-8.51-2.562-15.374-8.51-20.406-5.947-5.948-12.81-8.508-20.404-8.508H49.801zm88.571 38.338h234.242v116.662H138.371V58.795z" style="color:#000;font-style:normal;font-variant:normal;font-weight:400;font-stretch:normal;font-size:medium;line-height:normal;font-family:sans-serif;font-variant-ligatures:normal;font-variant-position:normal;font-variant-caps:normal;font-variant-numeric:normal;font-variant-alternates:normal;font-variant-east-asian:normal;font-feature-settings:normal;font-variation-settings:normal;text-indent:0;text-align:start;text-decoration:none;text-decoration-line:none;text-decoration-style:solid;text-decoration-color:#000;letter-spacing:normal;word-spacing:normal;text-transform:none;writing-mode:lr-tb;direction:ltr;text-orientation:mixed;dominant-baseline:auto;baseline-shift:baseline;text-anchor:start;white-space:normal;shape-padding:0;shape-margin:0;inline-size:0;clip-rule:nonzero;display:inline;overflow:visible;visibility:visible;isolation:auto;mix-blend-mode:normal;color-interpolation:sRGB;color-interpolation-filters:linearRGB;solid-color:#000;solid-opacity:1;vector-effect:none;fill:#0e3a5a;fill-opacity:1;fill-rule:nonzero;stroke:none;stroke-width:.914998;stroke-linecap:butt;stroke-linejoin:miter;stroke-miterlimit:4;stroke-dasharray:none;stroke-dashoffset:0;stroke-opacity:1;color-rendering:auto;image-rendering:auto;shape-rendering:auto;text-rendering:auto;enable-background:accumulate;stop-color:#000;stop-opacity:1"/>
    <path d="M257.071 458.628v53.147h53.147l156.75-156.749-53.148-53.147Zm250.997-144.703a14.114 14.114 0 0 0 0-19.983l-33.164-33.164a14.114 14.114 0 0 0-19.983 0l-25.936 25.936 53.147 53.147z" style="fill:#0e3a5a;fill-opacity:1;stroke-width:14.1726"/>
</svg>
